X:5171
T:Polka for Charles
O:england
R:Polka
N:15.7.95
M:C
C:Andy Hornby
A:Lancaster
K:D
FG|\
A2A2 AGFE|F2D2 F2A2|f2ef gece|d2cd f2d2|\
A2A2 AGFE|F2D2 F2A2|
f2ef gece|d4 d2 :|\
|: ed|\
c2A2 A2ag|f2d2 d2ed|
cdec Acec|defd Aded|\
c2A2 A2ag|f2d2 d2ed|cdec Acec|d4 d2 :|
W:Copyright (C) Andy Hornby


